assets/img/logo.svg

<svg width="160" height="50" xmlns="http://www.w3.org/2000/svg">

 <g>
  <title>Layer 1</title>
  <path id="svg_2" fill="#73E09A" d="m28.9525,25c3.0272,-2.1094 5.0453,-5.625 5.0453,-9.6094c0,-6.24997 -4.9677,-11.3281 -11.0997,-11.48435l0,-1.95313c0,-1.09374 -0.8538,-1.95312 -1.9405,-1.95312c-1.0867,0 -1.9405,0.85938 -1.9405,1.95312l0,1.95313l-3.1049,0l0,-1.95313c0,-1.09374 -0.8538,-1.95312 -1.9405,-1.95312c-1.0867,0 -1.9405,0.85938 -1.9405,1.95312l0,1.95313l-6.20965,0l-1.94052,0l-1.94051,0c-1.08669,0 -1.94052,0.85938 -1.94052,1.95313c0,1.09374 0.85383,1.95312 1.94052,1.95312l1.94051,0l0,15.2344l0,3.9062l0,15.2344l-1.94051,0c-1.08669,0 -1.94052,0.8594 -1.94052,1.9531c0,1.0938 0.85383,1.9532 1.94052,1.9532l1.94051,0l1.94052,0l6.20965,0l0,1.9531c0,1.0937 0.8538,1.9531 1.9405,1.9531c1.0867,0 1.9405,-0.8594 1.9405,-1.9531l0,-1.9531l3.1049,0l0,1.9531c0,1.0937 0.8538,1.9531 1.9405,1.9531c1.0867,0 1.9405,-0.8594 1.9405,-1.9531l0,-1.9531c6.132,-0.1563 11.0997,-5.2344 11.0997,-11.4844c0.0777,-3.9844 -1.9405,-7.5 -5.0453,-9.6094zm-21.11282,-17.1875l14.82552,0c4.1915,0 7.6068,3.4375 7.6068,7.6562c0,4.2188 -3.4153,7.6563 -7.6068,7.6563l-14.82552,0l0,-15.3125zm14.74792,34.375l-14.74792,0l0,-15.2344l14.82552,0c4.1915,0 7.6068,3.4375 7.6068,7.6563c0,4.2187 -3.4929,7.5781 -7.6844,7.5781z"/>
  <text stroke="null" transform="matrix(1.5041045784831388,0,0,1.2548673152923584,-19.7161812929255,-1.9792039953172207) " font-style="normal" font-weight="normal" xml:space="preserve" text-anchor="start" font-family="'Montserrat'" font-size="24" id="svg_3" y="30.81999" x="38.45751" opacity="undefined" fill-opacity="null" stroke-opacity="null" stroke-dasharray="null" stroke-width="0" fill="#000000">itCHF</text>
 </g>
</svg>

<svg width="185" height="50" viewBox="0 0 185 50" fill="none" xmlns="http://www.w3.org/2000/svg">
<path d="M56.86 34.91C58.5827 34.91 60.2293 34.6187 61.8 34.036C63.396 33.428 64.916 32.4527 66.36 31.11L68.26 33.39C66.816 34.7327 65.068 35.7967 63.016 36.582C60.964 37.3673 58.7853 37.76 56.48 37.76C54.0987 37.76 51.9453 37.456 50.02 36.848C48.12 36.24 46.486 35.3407 45.118 34.15C43.7753 32.9593 42.7367 31.49 42.002 29.742C41.2673 27.994 40.9 25.98 40.9 23.7C40.9 21.42 41.2547 19.406 41.964 17.658C42.6987 15.91 43.7247 14.4407 45.042 13.25C46.3847 12.0593 47.9933 11.16 49.868 10.552C51.7427 9.944 53.82 9.64 56.1 9.64C58.4053 9.64 60.584 10.0327 62.636 10.818C64.688 11.6033 66.436 12.6673 67.88 14.01L65.98 16.29C64.536 14.9473 63.016 13.9847 61.42 13.402C59.8493 12.794 58.2027 12.49 56.48 12.49C55.112 12.49 53.8327 12.718 52.642 13.174C51.4513 13.6047 50.4253 14.276 49.564 15.188C48.7027 16.1 48.0187 17.2653 47.512 18.684C47.0307 20.0773 46.79 21.7493 46.79 23.7C46.79 25.6507 47.0307 27.3353 47.512 28.754C48.0187 30.1473 48.7153 31.3 49.602 32.212C50.514 33.124 51.578 33.808 52.794 34.264C54.0353 34.6947 55.3907 34.91 56.86 34.91ZM86.6915 19.9H82.1315C80.4088 19.9 79.0915 20.3687 78.1795 21.306C77.2675 22.218 76.8115 23.586 76.8115 25.41V37H71.4915V25.41C71.4915 22.826 72.3022 20.8247 73.9235 19.406C75.5702 17.962 77.9262 17.24 80.9915 17.24H86.6915V19.9ZM105.297 36.24H100.357C96.734 36.24 94.0486 35.594 92.3006 34.302C90.578 32.9847 89.7166 31.034 89.7166 28.45V17.24H95.0366V28.45C95.0366 30.274 95.4926 31.5913 96.4046 32.402C97.3166 33.1873 98.634 33.58 100.357 33.58H105.297V17.24H110.617V36.62C110.617 37.8107 110.389 38.8873 109.933 39.85C109.477 40.838 108.793 41.6867 107.881 42.396C106.994 43.1053 105.867 43.65 104.499 44.03C103.156 44.41 101.585 44.6 99.7866 44.6C99.1786 44.6 98.52 44.5493 97.8106 44.448C97.1266 44.372 96.43 44.2327 95.7206 44.03C95.0113 43.8527 94.3146 43.612 93.6306 43.308C92.972 43.0293 92.364 42.7 91.8066 42.32L93.3266 40.04C94.188 40.6227 95.1506 41.0787 96.2146 41.408C97.2786 41.7627 98.3426 41.94 99.4066 41.94C101.307 41.94 102.763 41.5093 103.777 40.648C104.79 39.7867 105.297 38.444 105.297 36.62V36.24ZM121.273 19.9V34.34H126.023C126.884 34.34 127.67 34.2133 128.379 33.96C129.114 33.6813 129.734 33.2507 130.241 32.668C130.773 32.0853 131.178 31.338 131.457 30.426C131.761 29.514 131.913 28.412 131.913 27.12C131.913 25.828 131.761 24.726 131.457 23.814C131.178 22.902 130.773 22.1547 130.241 21.572C129.734 20.9893 129.114 20.5713 128.379 20.318C127.67 20.0393 126.884 19.9 126.023 19.9H121.273ZM126.023 17.24C127.771 17.24 129.354 17.468 130.773 17.924C132.217 18.38 133.446 19.0387 134.459 19.9C135.472 20.7613 136.245 21.8 136.777 23.016C137.334 24.232 137.613 25.6 137.613 27.12C137.613 28.64 137.334 30.008 136.777 31.224C136.245 32.44 135.472 33.4787 134.459 34.34C133.446 35.2013 132.217 35.86 130.773 36.316C129.354 36.772 127.771 37 126.023 37H121.273V43.84H115.953V17.24H126.023ZM142.934 19.9H139.324V17.24H142.934V11.16H148.254V17.24H154.144V19.9H148.254V29.78C148.254 30.7427 148.356 31.566 148.558 32.25C148.786 32.9087 149.078 33.4533 149.432 33.884C149.812 34.2893 150.243 34.5933 150.724 34.796C151.206 34.9987 151.712 35.1 152.244 35.1C153.004 35.1 153.739 34.986 154.448 34.758C155.158 34.5047 155.753 34.2387 156.234 33.96L157.374 36.43C156.614 36.81 155.74 37.1267 154.752 37.38C153.79 37.6333 152.827 37.76 151.864 37.76C149.002 37.76 146.798 37.0507 145.252 35.632C143.707 34.2133 142.934 32.2627 142.934 29.78V19.9ZM169.9 35.29C170.71 35.29 171.47 35.138 172.18 34.834C172.889 34.53 173.51 34.0613 174.042 33.428C174.574 32.7693 174.992 31.9207 175.296 30.882C175.625 29.8433 175.79 28.5893 175.79 27.12C175.79 25.6507 175.625 24.3967 175.296 23.358C174.992 22.3193 174.574 21.4833 174.042 20.85C173.51 20.1913 172.889 19.71 172.18 19.406C171.47 19.102 170.71 18.95 169.9 18.95C169.089 18.95 168.329 19.102 167.62 19.406C166.91 19.71 166.29 20.1913 165.758 20.85C165.226 21.4833 164.795 22.3193 164.466 23.358C164.162 24.3967 164.01 25.6507 164.01 27.12C164.01 28.5893 164.162 29.8433 164.466 30.882C164.795 31.9207 165.226 32.7693 165.758 33.428C166.29 34.0613 166.91 34.53 167.62 34.834C168.329 35.138 169.089 35.29 169.9 35.29ZM169.9 16.48C171.597 16.48 173.155 16.7207 174.574 17.202C176.018 17.658 177.246 18.342 178.26 19.254C179.273 20.1407 180.058 21.2553 180.616 22.598C181.198 23.9153 181.49 25.4227 181.49 27.12C181.49 28.8427 181.198 30.3627 180.616 31.68C180.058 32.9973 179.273 34.112 178.26 35.024C177.246 35.9107 176.018 36.582 174.574 37.038C173.155 37.5193 171.597 37.76 169.9 37.76C168.177 37.76 166.606 37.5193 165.188 37.038C163.769 36.582 162.553 35.9107 161.54 35.024C160.526 34.112 159.728 32.9973 159.146 31.68C158.588 30.3627 158.31 28.8427 158.31 27.12C158.31 25.4227 158.588 23.9153 159.146 22.598C159.728 21.2553 160.526 20.1407 161.54 19.254C162.553 18.342 163.769 17.658 165.188 17.202C166.606 16.7207 168.177 16.48 169.9 16.48Z" fill="white"/>
<path d="M28.9525 25C31.9797 22.8906 33.9978 19.375 33.9978 15.3906C33.9978 9.14063 29.0301 4.0625 22.8981 3.90625V1.95312C22.8981 0.859375 22.0443 0 20.9576 0C19.8709 0 19.0171 0.859375 19.0171 1.95312V3.90625H15.9122V1.95312C15.9122 0.859375 15.0584 0 13.9717 0C12.885 0 12.0312 0.859375 12.0312 1.95312V3.90625H5.82155H3.88103H1.94052C0.853827 3.90625 0 4.76563 0 5.85938C0 6.95312 0.853827 7.8125 1.94052 7.8125H3.88103V23.0469V26.9531V42.1875H1.94052C0.853827 42.1875 0 43.0469 0 44.1406C0 45.2344 0.853827 46.0938 1.94052 46.0938H3.88103H5.82155H12.0312V48.0469C12.0312 49.1406 12.885 50 13.9717 50C15.0584 50 15.9122 49.1406 15.9122 48.0469V46.0938H19.0171V48.0469C19.0171 49.1406 19.8709 50 20.9576 50C22.0443 50 22.8981 49.1406 22.8981 48.0469V46.0938C29.0301 45.9375 33.9978 40.8594 33.9978 34.6094C34.0755 30.625 32.0573 27.1094 28.9525 25ZM7.83968 7.8125H22.6652C26.8567 7.8125 30.272 11.25 30.272 15.4687C30.272 19.6875 26.8567 23.125 22.6652 23.125H7.83968V7.8125ZM22.5876 42.1875H7.83968V26.9531H22.6652C26.8567 26.9531 30.272 30.3906 30.272 34.6094C30.272 38.8281 26.7791 42.1875 22.5876 42.1875Z" fill="#73E09A"/>
</svg>
